!!!SOCIAL_FUNCTION:	bird dance songs
!!!PDT:	1956
!!!OTL: No_148_Fox_Dance_Song_(c).krn
!!!LANG: Non-Tone
!!!LING_GROUP: Muskogean
!!!REG: Florida
**kern
*staff1
=1-
*clefF4
*k[f#]
*M2/4
4r
8.r
16d\
=2!|:
16.d\LL
32A\K
16B\
16A\JJ
8.A\L
16B\Jk
=3
8.A\L
16G\Jk
(8G\L
8F#\J)
=4||
*M3/4
8D\L
8D\J
8D\L
16A\L
16A\JJ
8A\L
16G\L
16G\JJ
=5||
*M2/4
8E\L
8D\J
8.D\L
16A\Jk
=6
8.A\L
16G\Jk
(8G\L
8F#\J)
=7
8D\L
8D\J
4D\
=8
12E\L
12D\
12D\J
8D\L
8D\J
=9
8D\L
8D\J
8D\
16r
16d\
=10:|!
8D\L
8D\J
8D\
8r
==
*-
